X:21
T:Bonny light horseman - Peake
%%VWML:SBG-1-2-456-0
F:http://www.vwml.org/record/SBG/1/2/456
Z:Original Sibelius transcriptions by M. & S. Graebe
M:3/4
I:linebreak $
K:G
V:1 treble nm="P1"
V:1
 G | B G A | G B G | G F E | D2 | D | G2 A/B/ | c c B/c/ | d c/B/ A | G2 | d |$ e d/c/ B/A/ | %12
 G G A | B A G | A2 | G | d/c/ B A | (B/A/) G D | D G F | G2 |$ B/A/ | G B d | d B B/A/ | B d f | %24
 g d g/d/ | B A G/F/ | G E D | D G A | G2 x | %29

